X:1
T: Brown Eyed Kate
C:
R:Jig
Q:180
K:A
M:6/8
L:1/16
|:c2B2c2 A2c2e2|f6 e2f2g2|a4e2 e2d2c2|c2B2B2 B4d2|
c2B2c2 A2c2e2|f6 e2f2g2|a4e2 d2c2B2|A6 A4e2:|
|:e2c2e2 e2c2e2|a2g2f2 a2g2f2|e2f2e2 e2d2c2|c2B2B2 B2c2d2|
e2c2e2 e2c2e2|a2g2f2 a2g2f2|e2f2e2 d2c2B2|1A6 A4e2:|2A6 A6||
